src/main/resources/cards/fronts/clubs_3.svg

<?xml version="1.0" encoding="UTF-8" standalone="no"?>
<!-- Created with Inkscape (http://www.inkscape.org/) -->

<svg
   xmlns:dc="http://purl.org/dc/elements/1.1/"
   xmlns:cc="http://creativecommons.org/ns#"
   xmlns:rdf="http://www.w3.org/1999/02/22-rdf-syntax-ns#"
   xmlns="http://www.w3.org/2000/svg"
   xmlns:xlink="http://www.w3.org/1999/xlink"
   xmlns:sodipodi="http://sodipodi.sourceforge.net/DTD/sodipodi-0.dtd"
   xmlns:inkscape="http://www.inkscape.org/namespaces/inkscape"
   width="234"
   height="333"
   id="svg2"
   version="1.1"
   inkscape:version="0.92.4 (5da689c313, 2019-01-14)"
   sodipodi:docname="clubs_3.svg"
   inkscape:export-filename="C:\Users\fowle\OneDrive\Projects\Playing-Cards\fronts\png-096-dpi\clubs_3.png"
   inkscape:export-xdpi="95.999992"
   inkscape:export-ydpi="95.999992">
  <title
     id="title908">Three of Clubs Playing Card</title>
  <defs
     id="defs4" />
  <sodipodi:namedview
     id="base"
     pagecolor="#ffffff"
     bordercolor="#666666"
     borderopacity="1.0"
     inkscape:pageopacity="0.0"
     inkscape:pageshadow="2"
     inkscape:zoom="1.0958338"
     inkscape:cx="-149.13312"
     inkscape:cy="163.89272"
     inkscape:document-units="px"
     inkscape:current-layer="layer1"
     showgrid="false"
     inkscape:showpageshadow="false"
     showguides="true"
     inkscape:guide-bbox="true"
     inkscape:snap-global="true"
     inkscape:window-width="1456"
     inkscape:window-height="976"
     inkscape:window-x="83"
     inkscape:window-y="14"
     inkscape:window-maximized="0"
     showborder="false"
     fit-margin-top="0"
     fit-margin-left="0"
     fit-margin-right="0"
     fit-margin-bottom="0">
    <inkscape:grid
       type="xygrid"
       id="grid3767"
       empspacing="5"
       visible="true"
       enabled="true"
       snapvisiblegridlinesonly="true"
       originx="4.7266483e-05"
       originy="6.7423658e-05" />
  </sodipodi:namedview>
  <metadata
     id="metadata7">
    <rdf:RDF>
      <cc:Work
         rdf:about="">
        <dc:format>image/svg+xml</dc:format>
        <dc:type
           rdf:resource="http://purl.org/dc/dcmitype/StillImage" />
        <dc:title>Three of Clubs Playing Card</dc:title>
        <dc:date>2020-05-04</dc:date>
        <dc:creator>
          <cc:Agent>
            <dc:title>Daniel S. Fowler</dc:title>
          </cc:Agent>
        </dc:creator>
        <dc:rights>
          <cc:Agent>
            <dc:title>Public Domain</dc:title>
          </cc:Agent>
        </dc:rights>
        <dc:publisher>
          <cc:Agent>
            <dc:title>https://tekeye.uk</dc:title>
          </cc:Agent>
        </dc:publisher>
        <dc:language>en-GB</dc:language>
        <dc:subject>
          <rdf:Bag>
            <rdf:li>three; clubs; playing; card; black; white;</rdf:li>
          </rdf:Bag>
        </dc:subject>
        <dc:description>A three of clubs playing card in black and white.</dc:description>
        <cc:license
           rdf:resource="http://creativecommons.org/publicdomain/zero/1.0/" />
      </cc:Work>
      <cc:License
         rdf:about="http://creativecommons.org/publicdomain/zero/1.0/">
        <cc:permits
           rdf:resource="http://creativecommons.org/ns#Reproduction" />
        <cc:permits
           rdf:resource="http://creativecommons.org/ns#Distribution" />
        <cc:permits
           rdf:resource="http://creativecommons.org/ns#DerivativeWorks" />
      </cc:License>
    </rdf:RDF>
  </metadata>
  <g
     inkscape:label="Layer 1"
     inkscape:groupmode="layer"
     id="layer1"
     transform="translate(4.7266483e-5,-719.36225)">
    <g
       id="g884">
      <rect
         rx="8.9191856"
         ry="8.9457426"
         y="719.74017"
         x="0.37790549"
         height="332.24411"
         width="233.24409"
         id="rect4266"
         style="fill:#ffffff;fill-opacity:1;stroke:#808080;stroke-width:0.75590551;stroke-linecap:butt;stroke-linejoin:miter;stroke-miterlimit:4;stroke-dasharray:none;stroke-opacity:1" />
      <g
         transform="matrix(0.07364902,0,0,0.07382326,-248.82772,933.67508)"
         id="g4233"
         style="fill:none;stroke:#000000;stroke-opacity:1" />
      <g
         clip-path="none"
         style="fill:none;stroke:#000000;stroke-opacity:1"
         id="g4211"
         transform="matrix(0.07364902,0,0,0.07382326,-248.82769,933.67508)" />
      <g
         transform="matrix(0.07364902,0,0,0.07382326,-248.82772,933.67508)"
         id="g4227"
         style="fill:none;stroke:#000000;stroke-opacity:1" />
      <g
         transform="matrix(0.05661282,0,0,0.05676099,-21.667623,766.72594)"
         id="g5492-7">
        <rect
           style="fill:#000000;fill-opacity:1;stroke:none"
           id="rect4124-6"
           width="85.256371"
           height="295.68549"
           x="2406.7065"
           y="536.54938" />
        <path
           inkscape:connector-curvature="0"
           id="path3979-1-6-1"
           d="m 2917.8563,395.12877 c 67.135,120.80453 23.601,273.14486 -97.235,340.26188 -120.8361,67.11691 -273.2161,23.5947 -340.3501,-97.20972 -17.88,-32.17311 -28.44,-67.89332 -30.889,-104.57183 -9.342,137.92083 -128.747,242.09126 -266.6621,232.71366 -137.914,-9.37771 -242.111,-128.75233 -232.731,-266.63076 9.38,-137.87843 128.786,-242.04886 266.7,-232.67126 36.206,2.4619 71.4431,12.76531 103.7251,30.22171 -118.1921,-70.88592 -156.8751,-224.529044 -85.9451,-343.145874 70.9301,-118.616826 224.6131,-157.289636 343.2611,-86.378126 118.647,70.911526 157.3301,224.554657 86.4,343.17148 -21.341,35.68961 -51.243,65.49972 -86.812,86.88252 121.024,-66.97031 273.4041,-23.4481 340.5381,97.35632 z"
           style="fill:#000000;fill-opacity:1;stroke:none"
           sodipodi:nodetypes="ssscssscssscs" />
      </g>
      <g
         transform="matrix(0.01887094,0,0,0.01892033,-29.238556,764.79208)"
         id="g5492-7-8-1">
        <rect
           style="fill:#000000;fill-opacity:1;stroke:none"
           id="rect4124-6-9-7"
           width="85.256371"
           height="295.68549"
           x="2406.7065"
           y="536.54938" />
        <path
           inkscape:connector-curvature="0"
           id="path3979-1-6-1-2-4"
           d="m 2917.8563,395.12877 c 67.135,120.80453 23.601,273.14486 -97.235,340.26188 -120.8361,67.11691 -273.2161,23.5947 -340.3501,-97.20972 -17.88,-32.17311 -28.44,-67.89332 -30.889,-104.57183 -9.342,137.92083 -128.747,242.09126 -266.6621,232.71366 -137.914,-9.37771 -242.111,-128.75233 -232.731,-266.63076 9.38,-137.87843 128.786,-242.04886 266.7,-232.67126 36.206,2.4619 71.4431,12.76531 103.7251,30.22171 -118.1921,-70.88592 -156.8751,-224.529044 -85.9451,-343.145874 70.9301,-118.616826 224.6131,-157.289636 343.2611,-86.378126 118.647,70.911526 157.3301,224.554657 86.4,343.17148 -21.341,35.68961 -51.243,65.49972 -86.812,86.88252 121.024,-66.97031 273.4041,-23.4481 340.5381,97.35632 z"
           style="fill:#000000;fill-opacity:1;stroke:none"
           sodipodi:nodetypes="ssscssscssscs" />
      </g>
      <g
         transform="matrix(0.01887104,0,0,-0.01892033,171.36332,1006.9323)"
         id="g5492-7-8-8-4">
        <rect
           style="fill:#000000;fill-opacity:1;stroke:none"
           id="rect4124-6-9-8-8"
           width="85.256371"
           height="295.68549"
           x="2406.7065"
           y="536.54938" />
        <path
           inkscape:connector-curvature="0"
           id="path3979-1-6-1-2-2-8"
           d="m 2917.8563,395.12877 c 67.135,120.80453 23.601,273.14486 -97.235,340.26188 -120.8361,67.11691 -273.2161,23.5947 -340.3501,-97.20972 -17.88,-32.17311 -28.44,-67.89332 -30.889,-104.57183 -9.342,137.92083 -128.747,242.09126 -266.6621,232.71366 -137.914,-9.37771 -242.111,-128.75233 -232.731,-266.63076 9.38,-137.87843 128.786,-242.04886 266.7,-232.67126 36.206,2.4619 71.4431,12.76531 103.7251,30.22171 -118.1921,-70.88592 -156.8751,-224.529044 -85.9451,-343.145874 70.9301,-118.616826 224.6131,-157.289636 343.2611,-86.378126 118.647,70.911526 157.3301,224.554657 86.4,343.17148 -21.341,35.68961 -51.243,65.49972 -86.812,86.88252 121.024,-66.97031 273.4041,-23.4481 340.5381,97.35632 z"
           style="fill:#000000;fill-opacity:1;stroke:none"
           sodipodi:nodetypes="ssscssscssscs" />
      </g>
      <g
         transform="matrix(0.05661282,0,0,0.05676099,-21.66762,867.00445)"
         id="g5492-7-7">
        <rect
           style="fill:#000000;fill-opacity:1;stroke:none"
           id="rect4124-6-6"
           width="85.256371"
           height="295.68549"
           x="2406.7065"
           y="536.54938" />
        <path
           inkscape:connector-curvature="0"
           id="path3979-1-6-1-1"
           d="m 2917.8563,395.12877 c 67.135,120.80453 23.601,273.14486 -97.235,340.26188 -120.8361,67.11691 -273.2161,23.5947 -340.3501,-97.20972 -17.88,-32.17311 -28.44,-67.89332 -30.889,-104.57183 -9.342,137.92083 -128.747,242.09126 -266.6621,232.71366 -137.914,-9.37771 -242.111,-128.75233 -232.731,-266.63076 9.38,-137.87843 128.786,-242.04886 266.7,-232.67126 36.206,2.4619 71.4431,12.76531 103.7251,30.22171 -118.1921,-70.88592 -156.8751,-224.529044 -85.9451,-343.145874 70.9301,-118.616826 224.6131,-157.289636 343.2611,-86.378126 118.647,70.911526 157.3301,224.554657 86.4,343.17148 -21.341,35.68961 -51.243,65.49972 -86.812,86.88252 121.024,-66.97031 273.4041,-23.4481 340.5381,97.35632 z"
           style="fill:#000000;fill-opacity:1;stroke:none"
           sodipodi:nodetypes="ssscssscssscs" />
      </g>
      <g
         transform="matrix(0.05661282,0,0,-0.05676099,-21.66762,1004.9984)"
         id="g5492-7-5-2-6">
        <rect
           style="fill:#000000;fill-opacity:1;stroke:none"
           id="rect4124-6-51-2-8"
           width="85.256371"
           height="295.68549"
           x="2406.7065"
           y="536.54938" />
        <path
           inkscape:connector-curvature="0"
           id="path3979-1-6-1-7-1-5"
           d="m 2917.8563,395.12877 c 67.135,120.80453 23.601,273.14486 -97.235,340.26188 -120.8361,67.11691 -273.2161,23.5947 -340.3501,-97.20972 -17.88,-32.17311 -28.44,-67.89332 -30.889,-104.57183 -9.342,137.92083 -128.747,242.09126 -266.6621,232.71366 -137.914,-9.37771 -242.111,-128.75233 -232.731,-266.63076 9.38,-137.87843 128.786,-242.04886 266.7,-232.67126 36.206,2.4619 71.4431,12.76531 103.7251,30.22171 -118.1921,-70.88592 -156.8751,-224.529044 -85.9451,-343.145874 70.9301,-118.616826 224.6131,-157.289636 343.2611,-86.378126 118.647,70.911526 157.3301,224.554657 86.4,343.17148 -21.341,35.68961 -51.243,65.49972 -86.812,86.88252 121.024,-66.97031 273.4041,-23.4481 340.5381,97.35632 z"
           style="fill:#000000;fill-opacity:1;stroke:none"
           sodipodi:nodetypes="ssscssscssscs" />
      </g>
      <g
         id="text3755-0"
         style="font-style:normal;font-variant:normal;font-weight:bold;font-stretch:normal;font-size:3.77913785px;line-height:0%;font-family:'Levenim MT';-inkscape-font-specification:'Sans Bold';letter-spacing:0px;word-spacing:0px;fill:#000000;fill-opacity:1;stroke:none;stroke-width:0.31492817"
         transform="scale(1.0095881,0.99050296)"
         aria-label="3">
        <path
           id="path902"
           style="font-size:40.00067139px;line-height:1.25;stroke-width:0.31492817"
           d="m 26.16853,754.46685 q 0,3.98444 -2.793015,6.13292 -2.519574,1.95315 -6.601673,1.95315 -9.2970315,0 -9.2970315,-8.78921 0,-0.41016 0.136721,-0.78126 0.2929737,-0.17578 0.6640737,-0.17578 H 10.81671 q 0.3711,0 0.683606,0.17578 0.09766,0.27344 0.156252,0.64454 0.332037,2.42192 1.367211,3.51569 1.152363,1.21095 3.535215,1.21095 1.953158,0 3.183647,-1.0547 1.289084,-1.13283 1.289084,-3.04693 0,-4.06256 -4.433668,-4.7657 -0.546884,-0.0781 -0.820326,-0.23438 -0.156253,-0.31251 -0.156253,-3.16412 0,-0.3711 0.175785,-0.70313 1.464868,-0.4297 2.929736,-0.87892 1.542995,-0.70314 1.542995,-2.94927 0,-3.3985 -3.984442,-3.3985 -1.835968,0 -2.871142,0.89846 -0.546884,0.48829 -1.132831,1.66018 -0.429695,0.89845 -0.85939,0.89845 H 8.9026157 q -0.9570473,0 -0.9570473,-0.85939 0,-3.26177 2.5586366,-5.15633 2.304726,-1.69925 5.664158,-1.69925 3.867252,0 6.308699,1.62112 2.871142,1.89456 2.871142,5.58603 0,4.4532 -4.394605,6.05479 5.214931,2.20707 5.214931,7.30481 z"
           inkscape:connector-curvature="0" />
      </g>
      <g
         id="text3755-2-2"
         style="font-style:normal;font-variant:normal;font-weight:bold;font-stretch:normal;font-size:3.77913785px;line-height:0%;font-family:'Levenim MT';-inkscape-font-specification:'Sans Bold';letter-spacing:0px;word-spacing:0px;fill:#000000;fill-opacity:1;stroke:none;stroke-width:0.31492817"
         transform="scale(-1.0095881,-0.99050296)"
         aria-label="3">
        <path
           id="path905"
           style="font-size:40.00067139px;line-height:1.25;stroke-width:0.31492817"
           d="m -205.60907,-1034.245 q 0,3.9844 -2.79301,6.1329 -2.51958,1.9532 -6.60168,1.9532 -9.29703,0 -9.29703,-8.7892 0,-0.4102 0.13672,-0.7813 0.29298,-0.1758 0.66408,-0.1758 h 2.5391 q 0.3711,0 0.68361,0.1758 0.0976,0.2734 0.15625,0.6445 0.33204,2.422 1.36721,3.5157 1.15236,1.211 3.53521,1.211 1.95316,0 3.18365,-1.0547 1.28909,-1.1329 1.28909,-3.0469 0,-4.0626 -4.43367,-4.7658 -0.54689,-0.078 -0.82033,-0.2343 -0.15625,-0.3125 -0.15625,-3.1641 0,-0.3711 0.17578,-0.7032 1.46487,-0.4297 2.92974,-0.8789 1.54299,-0.7031 1.54299,-2.9493 0,-3.3985 -3.98444,-3.3985 -1.83597,0 -2.87114,0.8985 -0.54688,0.4883 -1.13283,1.6602 -0.4297,0.8984 -0.85939,0.8984 h -2.51957 q -0.95705,0 -0.95705,-0.8594 0,-3.2617 2.55864,-5.1563 2.30472,-1.6993 5.66415,-1.6993 3.86726,0 6.3087,1.6212 2.87114,1.8945 2.87114,5.586 0,4.4532 -4.3946,6.0548 5.21493,2.2071 5.21493,7.3048 z"
           inkscape:connector-curvature="0" />
      </g>
    </g>
  </g>
</svg>

<svg width="234" height="333" xmlns="http://www.w3.org/2000/svg">
    <g id="layer1" transform="matrix(1 0 0 1 0.00004727 -719.3622)">
        <g id="g884">
            <path id="rect4266" fill="#ffffff" stroke="#808080" stroke-width="0.7559055" d="M 9.2970915 719.7402 L 224.7028 719.7402 C 229.62874 719.7402 233.622 723.74524 233.622 728.6859 L 233.622 1043.0385 C 233.62201 1045.411 232.68231 1047.6864 231.00964 1049.3641 C 229.33696 1051.0417 227.06833 1051.9843 224.7028 1051.9843 L 9.2970915 1051.9843 C 6.931566 1051.9843 4.6629276 1051.0417 2.9902542 1049.3641 C 1.3175806 1047.6864 0.3778901 1045.411 0.3779055 1043.0385 L 0.3779055 728.6859 C 0.37790707 723.74524 4.3711624 719.7402 9.2970915 719.7402 Z"/>
            <g id="g4233" transform="matrix(0.07364902 0 0 0.07382326 -248.82771 933.6751)"/>
            <g id="g4211" transform="matrix(0.07364902 0 0 0.07382326 -248.82768 933.6751)"/>
            <g id="g4227" transform="matrix(0.07364902 0 0 0.07382326 -248.82771 933.6751)"/>
            <g id="g5492-7" transform="matrix(0.05661282 0 0 0.05676099 -21.667622 766.72595)">
                <path id="rect4124-6" fill="#000000" stroke="none" d="M 2406.7065 536.5494 L 2491.963 536.5494 L 2491.963 832.23486 L 2406.7065 832.23486 Z"/>
                <path id="path3979-1-6-1" fill="#000000" stroke="none" d="M 2917.856 395.12878 C 2984.9912 515.9333 2941.4573 668.2736 2820.6213 735.3906 C 2699.7852 802.50757 2547.4053 758.98535 2480.2712 638.1809 C 2462.391 606.0078 2451.8313 570.2876 2449.382 533.6091 C 2440.0403 671.5299 2320.6353 775.7004 2182.7202 766.32275 C 2044.8062 756.94507 1940.6091 637.57043 1949.9891 499.69196 C 1959.3691 361.81357 2078.7751 257.64313 2216.6892 267.02075 C 2252.895 269.48264 2288.132 279.78604 2320.4143 297.24246 C 2202.2222 226.35654 2163.539 72.71341 2234.469 -45.903423 C 2305.3992 -164.52025 2459.0823 -203.19305 2577.7302 -132.28156 C 2696.3772 -61.370026 2735.0603 92.27311 2664.1301 210.88994 C 2642.7893 246.57954 2612.8872 276.38965 2577.318 297.77246 C 2698.3423 230.80214 2850.7222 274.32434 2917.856 395.12878 Z"/>
            </g>
            <g id="g5492-7-8-1" transform="matrix(0.01887094 0 0 0.01892033 -29.238556 764.792)">
                <path id="rect4124-6-9-7" fill="#000000" stroke="none" d="M 2406.7065 536.5494 L 2491.963 536.5494 L 2491.963 832.23486 L 2406.7065 832.23486 Z"/>
                <path id="path3979-1-6-1-2-4" fill="#000000" stroke="none" d="M 2917.856 395.12878 C 2984.9912 515.9333 2941.4573 668.2736 2820.6213 735.3906 C 2699.7852 802.50757 2547.4053 758.98535 2480.2712 638.1809 C 2462.391 606.0078 2451.8313 570.2876 2449.382 533.6091 C 2440.0403 671.5299 2320.6353 775.7004 2182.7202 766.32275 C 2044.8062 756.94507 1940.6091 637.57043 1949.9891 499.69196 C 1959.3691 361.81357 2078.7751 257.64313 2216.6892 267.02075 C 2252.895 269.48264 2288.132 279.78604 2320.4143 297.24246 C 2202.2222 226.35654 2163.539 72.71341 2234.469 -45.903423 C 2305.3992 -164.52025 2459.0823 -203.19305 2577.7302 -132.28156 C 2696.3772 -61.370026 2735.0603 92.27311 2664.1301 210.88994 C 2642.7893 246.57954 2612.8872 276.38965 2577.318 297.77246 C 2698.3423 230.80214 2850.7222 274.32434 2917.856 395.12878 Z"/>
            </g>
            <g id="g5492-7-8-8-4" transform="matrix(0.01887104 0 0 -0.01892033 171.36333 1006.9323)">
                <path id="rect4124-6-9-8-8" fill="#000000" stroke="none" d="M 2406.7065 536.5494 L 2491.963 536.5494 L 2491.963 832.23486 L 2406.7065 832.23486 Z"/>
                <path id="path3979-1-6-1-2-2-8" fill="#000000" stroke="none" d="M 2917.856 395.12878 C 2984.9912 515.9333 2941.4573 668.2736 2820.6213 735.3906 C 2699.7852 802.50757 2547.4053 758.98535 2480.2712 638.1809 C 2462.391 606.0078 2451.8313 570.2876 2449.382 533.6091 C 2440.0403 671.5299 2320.6353 775.7004 2182.7202 766.32275 C 2044.8062 756.94507 1940.6091 637.57043 1949.9891 499.69196 C 1959.3691 361.81357 2078.7751 257.64313 2216.6892 267.02075 C 2252.895 269.48264 2288.132 279.78604 2320.4143 297.24246 C 2202.2222 226.35654 2163.539 72.71341 2234.469 -45.903423 C 2305.3992 -164.52025 2459.0823 -203.19305 2577.7302 -132.28156 C 2696.3772 -61.370026 2735.0603 92.27311 2664.1301 210.88994 C 2642.7893 246.57954 2612.8872 276.38965 2577.318 297.77246 C 2698.3423 230.80214 2850.7222 274.32434 2917.856 395.12878 Z"/>
            </g>
            <g id="g5492-7-7" transform="matrix(0.05661282 0 0 0.05676099 -21.66762 867.0044)">
                <path id="rect4124-6-6" fill="#000000" stroke="none" d="M 2406.7065 536.5494 L 2491.963 536.5494 L 2491.963 832.23486 L 2406.7065 832.23486 Z"/>
                <path id="path3979-1-6-1-1" fill="#000000" stroke="none" d="M 2917.856 395.12878 C 2984.9912 515.9333 2941.4573 668.2736 2820.6213 735.3906 C 2699.7852 802.50757 2547.4053 758.98535 2480.2712 638.1809 C 2462.391 606.0078 2451.8313 570.2876 2449.382 533.6091 C 2440.0403 671.5299 2320.6353 775.7004 2182.7202 766.32275 C 2044.8062 756.94507 1940.6091 637.57043 1949.9891 499.69196 C 1959.3691 361.81357 2078.7751 257.64313 2216.6892 267.02075 C 2252.895 269.48264 2288.132 279.78604 2320.4143 297.24246 C 2202.2222 226.35654 2163.539 72.71341 2234.469 -45.903423 C 2305.3992 -164.52025 2459.0823 -203.19305 2577.7302 -132.28156 C 2696.3772 -61.370026 2735.0603 92.27311 2664.1301 210.88994 C 2642.7893 246.57954 2612.8872 276.38965 2577.318 297.77246 C 2698.3423 230.80214 2850.7222 274.32434 2917.856 395.12878 Z"/>
            </g>
            <g id="g5492-7-5-2-6" transform="matrix(0.05661282 0 0 -0.05676099 -21.66762 1004.9984)">
                <path id="rect4124-6-51-2-8" fill="#000000" stroke="none" d="M 2406.7065 536.5494 L 2491.963 536.5494 L 2491.963 832.23486 L 2406.7065 832.23486 Z"/>
                <path id="path3979-1-6-1-7-1-5" fill="#000000" stroke="none" d="M 2917.856 395.12878 C 2984.9912 515.9333 2941.4573 668.2736 2820.6213 735.3906 C 2699.7852 802.50757 2547.4053 758.98535 2480.2712 638.1809 C 2462.391 606.0078 2451.8313 570.2876 2449.382 533.6091 C 2440.0403 671.5299 2320.6353 775.7004 2182.7202 766.32275 C 2044.8062 756.94507 1940.6091 637.57043 1949.9891 499.69196 C 1959.3691 361.81357 2078.7751 257.64313 2216.6892 267.02075 C 2252.895 269.48264 2288.132 279.78604 2320.4143 297.24246 C 2202.2222 226.35654 2163.539 72.71341 2234.469 -45.903423 C 2305.3992 -164.52025 2459.0823 -203.19305 2577.7302 -132.28156 C 2696.3772 -61.370026 2735.0603 92.27311 2664.1301 210.88994 C 2642.7893 246.57954 2612.8872 276.38965 2577.318 297.77246 C 2698.3423 230.80214 2850.7222 274.32434 2917.856 395.12878 Z"/>
            </g>
            <g id="text3755-0" transform="matrix(1.0095881 0 0 0.99050295 0 0)">
                <path id="path902" fill="#000000" stroke="none" d="M 26.16853 754.4669 Q 26.16853 758.4513 23.375517 760.59973 Q 20.855942 762.5529 16.773842 762.5529 Q 7.4768105 762.5529 7.4768105 753.7637 Q 7.4768105 753.3536 7.6135316 752.9824 Q 7.906505 752.80664 8.277605 752.80664 L 10.81671 752.80664 Q 11.187811 752.80664 11.500317 752.9824 Q 11.597977 753.256 11.656567 753.6271 Q 11.988605 756.0488 13.023779 757.14276 Q 14.176142 758.3537 16.558994 758.3537 Q 18.512152 758.3537 19.742641 757.29895 Q 21.031725 756.1661 21.031725 754.252 Q 21.031725 750.18945 16.598057 749.4863 Q 16.051172 749.4082 15.777731 749.2519 Q 15.621478 748.93945 15.621478 746.08777 Q 15.621478 745.7167 15.797263 745.38464 Q 17.26213 744.9549 18.727 744.50574 Q 20.269995 743.8026 20.269995 741.55646 Q 20.269995 738.15796 16.285551 738.15796 Q 14.449585 738.15796 13.414411 739.05646 Q 12.867526 739.54474 12.28158 740.7166 Q 11.851884 741.61505 11.422189 741.61505 L 8.902616 741.61505 Q 7.9455686 741.61505 7.9455686 740.7557 Q 7.9455686 737.4939 10.504205 735.5993 Q 12.808932 733.9001 16.168364 733.9001 Q 20.035616 733.9001 22.47706 735.52124 Q 25.348204 737.4158 25.348204 741.10724 Q 25.348204 745.56036 20.9536 747.162 Q 26.16853 749.3691 26.16853 754.4669 Z"/>
            </g>
            <g id="text3755-2-2" transform="matrix(-1.0095881 0 0 -0.99050295 0 0)">
                <path id="path905" fill="#000000" stroke="none" d="M -205.60907 -1034.245 Q -205.60907 -1030.2606 -208.40208 -1028.112 Q -210.92166 -1026.1589 -215.00375 -1026.1589 Q -224.3008 -1026.1589 -224.3008 -1034.9481 Q -224.3008 -1035.3583 -224.16406 -1035.7294 Q -223.8711 -1035.9052 -223.49998 -1035.9052 L -220.96089 -1035.9052 Q -220.58977 -1035.9052 -220.27728 -1035.7294 Q -220.17969 -1035.456 -220.12103 -1035.085 Q -219.78899 -1032.6628 -218.75383 -1031.5692 Q -217.60146 -1030.3582 -215.21861 -1030.3582 Q -213.26544 -1030.3582 -212.03494 -1031.4128 Q -210.74585 -1032.5458 -210.74585 -1034.4598 Q -210.74585 -1038.5225 -215.17953 -1039.2256 Q -215.72643 -1039.3036 -215.99986 -1039.46 Q -216.15611 -1039.7725 -216.15611 -1042.624 Q -216.15611 -1042.9951 -215.98035 -1043.3271 Q -214.51547 -1043.757 -213.0506 -1044.206 Q -211.50761 -1044.9092 -211.50761 -1047.1554 Q -211.50761 -1050.554 -215.49205 -1050.554 Q -217.32802 -1050.554 -218.36319 -1049.6554 Q -218.91006 -1049.1671 -219.49602 -1047.9952 Q -219.92574 -1047.0968 -220.3554 -1047.0968 L -222.875 -1047.0968 Q -223.83202 -1047.0968 -223.83202 -1047.9562 Q -223.83202 -1051.2179 -221.27339 -1053.1125 Q -218.96867 -1054.8118 -215.60924 -1054.8118 Q -211.74199 -1054.8118 -209.30054 -1053.1906 Q -206.42938 -1051.2961 -206.42938 -1047.6046 Q -206.42938 -1043.1514 -210.824 -1041.5498 Q -205.60907 -1039.3427 -205.60907 -1034.245 Z"/>
            </g>
        </g>
    </g>
</svg>
